PortableApps/LibreOfficePortable/App/libreoffice/help/media/icon-themes/cmd/sc_wrapideal.svg

<svg viewBox="0 0 16 16" xmlns="http://www.w3.org/2000/svg"><path d="m6 2c-1.108 0-2 .892-2 2v8c0 1.108.892 2 2 2h4c1.108 0 2-.892 2-2v-8c0-1.108-.892-2-2-2zm0 1h4c.554 0 1 .446 1 1v8c0 .554-.446 1-1 1h-4c-.554 0-1-.446-1-1v-8c0-.554.446-1 1-1z" fill="#eac282"/><path d="m1.5 1c-.277 0-.5.223-.5.5s.223.5.5.5h13c.277 0 .5-.223.5-.5s-.223-.5-.5-.5zm-.0351562 3c-.257081 0-.4648438.2077628-.4648438.4648438v.0703124c0 .257081.2077627.4648438.4648438.4648438h2.0703124c.2570811 0 .4648438-.2077628.4648438-.4648438v-.0703124c0-.257081-.2077627-.4648438-.4648438-.4648438zm11.0000002 0c-.257081 0-.464844.2077628-.464844.4648438v.0703124c0 .257081.207763.4648438.464844.4648438h2.070312c.257081 0 .464844-.2077628.464844-.4648438v-.0703124c0-.257081-.207763-.4648438-.464844-.4648438zm-11.121094 3c-.1906851 0-.34375.1530649-.34375.34375v.3125c0 .1906851.1530649.34375.34375.34375h2.3125c.1906851 0 .34375-.1530649.34375-.34375v-.3125c0-.1906851-.1530649-.34375-.34375-.34375zm11 0c-.190685 0-.34375.1530649-.34375.34375v.3125c0 .1906851.153065.34375.34375.34375h2.3125c.190685 0 .34375-.1530649.34375-.34375v-.3125c0-.1906851-.153065-.34375-.34375-.34375zm-10.8671875 3c-.2637206 0-.4765625.212843-.4765625.476562v.046876c0 .263719.2128419.476562.4765625.476562h2.046875c.2637206 0 .4765625-.212843.4765625-.476562v-.046876c0-.263719-.2128419-.476562-.4765625-.476562zm10.9999995 0c-.26372 0-.476562.212842-.476562.476562v.046876c0 .26372.212842.476562.476562.476562h2.046876c.26372 0 .476562-.212842.476562-.476562v-.046876c0-.26372-.212842-.476562-.476562-.476562zm-10.976562 4c-.277 0-.5.223-.5.5s.223.5.5.5h13c.277 0 .5-.223.5-.5s-.223-.5-.5-.5z" fill="#808080"/><path d="m6 3c-.554 0-1 .446-1 1v8c0 .554.446 1 1 1h4c.554 0 1-.446 1-1v-8c0-.554-.446-1-1-1z" fill="#4d82b8"/></svg>

<svg viewBox="0 0 16 16" xmlns="http://www.w3.org/2000/svg">
  <path
     style="fill:#eac282"
     d="M 6 2 C 4.892 2 4 2.892 4 4 L 4 12 C 4 13.108 4.892 14 6 14 L 10 14 C 11.108 14 12 13.108 12 12 L 12 4 C 12 2.892 11.108 2 10 2 L 6 2 z M 6 3 L 10 3 C 10.554 3 11 3.446 11 4 L 11 12 C 11 12.554 10.554 13 10 13 L 6 13 C 5.446 13 5 12.554 5 12 L 5 4 C 5 3.446 5.446 3 6 3 z "
     />
  <path
     style="fill:#808080"
     d="M 1.5 1 C 1.223 1 1 1.223 1 1.5 C 1 1.777 1.223 2 1.5 2 L 14.5 2 C 14.777 2 15 1.777 15 1.5 C 15 1.223 14.777 1 14.5 1 L 1.5 1 z M 1.4648438 4 C 1.2077628 4 1 4.2077628 1 4.4648438 L 1 4.5351562 C 1 4.7922372 1.2077627 5 1.4648438 5 L 3.5351562 5 C 3.7922373 5 4 4.7922372 4 4.5351562 L 4 4.4648438 C 4 4.2077628 3.7922373 4 3.5351562 4 L 1.4648438 4 z M 12.464844 4 C 12.207763 4 12 4.2077628 12 4.4648438 L 12 4.5351562 C 12 4.7922372 12.207763 5 12.464844 5 L 14.535156 5 C 14.792237 5 15 4.7922372 15 4.5351562 L 15 4.4648438 C 15 4.2077628 14.792237 4 14.535156 4 L 12.464844 4 z M 1.34375 7 C 1.1530649 7 1 7.1530649 1 7.34375 L 1 7.65625 C 1 7.8469351 1.1530649 8 1.34375 8 L 3.65625 8 C 3.8469351 8 4 7.8469351 4 7.65625 L 4 7.34375 C 4 7.1530649 3.8469351 7 3.65625 7 L 1.34375 7 z M 12.34375 7 C 12.153065 7 12 7.1530649 12 7.34375 L 12 7.65625 C 12 7.8469351 12.153065 8 12.34375 8 L 14.65625 8 C 14.846935 8 15 7.8469351 15 7.65625 L 15 7.34375 C 15 7.1530649 14.846935 7 14.65625 7 L 12.34375 7 z M 1.4765625 10 C 1.2128419 10 1 10.212843 1 10.476562 L 1 10.523438 C 1 10.787157 1.2128419 11 1.4765625 11 L 3.5234375 11 C 3.7871581 11 4 10.787157 4 10.523438 L 4 10.476562 C 4 10.212843 3.7871581 10 3.5234375 10 L 1.4765625 10 z M 12.476562 10 C 12.212842 10 12 10.212842 12 10.476562 L 12 10.523438 C 12 10.787158 12.212842 11 12.476562 11 L 14.523438 11 C 14.787158 11 15 10.787158 15 10.523438 L 15 10.476562 C 15 10.212842 14.787158 10 14.523438 10 L 12.476562 10 z M 1.5 14 C 1.223 14 1 14.223 1 14.5 C 1 14.777 1.223 15 1.5 15 L 14.5 15 C 14.777 15 15 14.777 15 14.5 C 15 14.223 14.777 14 14.5 14 L 1.5 14 z "
     />
  <path
     style="fill:#4d82b8"
     d="M 6 3 C 5.446 3 5 3.446 5 4 L 5 12 C 5 12.554 5.446 13 6 13 L 10 13 C 10.554 13 11 12.554 11 12 L 11 4 C 11 3.446 10.554 3 10 3 L 6 3 z "
     />
</svg>
